icon-themes/breeze_svg/res/harddisk_16.svg

<svg viewBox="0 0 16 16" xmlns="http://www.w3.org/2000/svg"><path d="m2 2v12h1 10 1v-12zm1 1h10v7 1h-5v1h-2v-1h-3v-1zm1 1v6h8v-6zm1 1h1v2h4v-2h1v4h-6zm-2 7h2v1h-2zm6 0h3v1h-3z" fill="#4d4d4d"/></svg>

<svg xmlns="http://www.w3.org/2000/svg" viewBox="0 0 16 16">
 <path 
     style="fill:#4d4d4d" 
     d="M 2 2 L 2 14 L 3 14 L 13 14 L 14 14 L 14 2 L 2 2 z M 3 3 L 13 3 L 13 10 L 13 11 L 8 11 L 8 12 L 6 12 L 6 11 L 3 11 L 3 10 L 3 3 z M 4 4 L 4 10 L 12 10 L 12 4 L 4 4 z M 5 5 L 6 5 L 6 7 L 10 7 L 10 5 L 11 5 L 11 9 L 5 9 L 5 5 z M 3 12 L 5 12 L 5 13 L 3 13 L 3 12 z M 9 12 L 12 12 L 12 13 L 9 13 L 9 12 z "
     />
 </svg>
